X:1
T:Holden, CMD
T:Thomas Whittemore, 1841
T:Holden, CMD
T:Public Domain
C:Thomas Whittemore, 1841
Z:Public Domain
%%score ( 1 2 ) ( 3 4 )
L:1/8
M:3/4
K:D
V:1 treble 
V:2 treble 
V:3 bass 
V:4 bass 
V:1
 D2 | [DF]>[CE] D[DF] [DG][DB] | [DA]3 [DF] [DB][DA] | A2 G2 [DF]2 | [CE]4 [CE]2 | %5
 [CE][EA] [Ec][Ee] [Ae][Ac] | [GB]4 [EB]2 | [Ec][EA] [FB]2 [DB]2 | [CA]4 [DF]2 | %9
 [DF]>[EG] [FA][DF] [EG][DF] | [CE]4 [CF]2 | [DF]>[Fd] [Fd][Fc] [DB][C^A] | [DB]3 d cB | A3 D FD | %14
 A4 [FA]2 | [Fd]4 [Ad]2 | [Ge]4 [Ec]2 | [Fd]4 |] %18
V:2
 D2 | x2 D x3 | x6 | E4 x2 | x6 | x6 | x6 | x6 | x6 | x6 | x6 | x6 | x3 d cB | A3 D FD | A4 x2 | %15
 x6 | x6 | x4 |] %18
V:3
 [D,A,]2 | [D,A,]>[D,A,] [D,A,][D,A,] [G,B,]G, | [D,F,]3 [D,A,] G,[F,A,] | [C,A,]4 [D,A,]2 | %4
 [A,,A,]4 [A,,A,]2 | [A,,A,][A,,C] [A,,E][A,,C] [C,A,][A,,C] | [E,E]4 [G,,B,]2 | %7
 [A,,A,][C,A,] [D,A,]2 [E,^G,]2 | [A,,A,]4 z2 | z6 | z4 [F,^A,]2 | [F,B,]>[F,B,] B,G, F,2 | %12
 [B,,F,]3 D CB, | A,3 D, F,D, | A,4 [D,A,]2 | [D,A,]4 [F,D]2 | [G,B,]4 A,2 | [D,A,]4 |] %18
V:4
 x2 | x5 G, | x4 G, x | x6 | x6 | x6 | x6 | x6 | x6 | x6 | x6 | x2 F,2 F,2 | x3 D CB, | %13
 A,3 D, F,D, | A,4 x2 | x6 | x4 A,2 | x4 |] %18

